projects/js-packages/social-logos/src/svg/codepen.svg

<svg enable-background="new 0 0 24 24" viewBox="0 0 24 24" xmlns="http://www.w3.org/2000/svg"><path d="m22.016 8.84c-.002-.013-.005-.025-.007-.037-.005-.025-.008-.048-.015-.072-.003-.015-.01-.028-.013-.042-.008-.02-.015-.04-.023-.062-.007-.015-.013-.028-.02-.042-.008-.02-.018-.037-.03-.057-.007-.013-.017-.027-.025-.038-.012-.018-.023-.035-.035-.052-.01-.013-.02-.025-.03-.037-.015-.017-.028-.032-.043-.045-.01-.012-.022-.023-.035-.035-.015-.015-.032-.028-.048-.04-.012-.01-.025-.02-.037-.03-.005-.003-.01-.008-.015-.012l-9.161-6.096c-.289-.192-.666-.192-.955 0l-9.165 6.094c-.005.003-.01.008-.015.012l-.038.028c-.017.013-.033.027-.048.04-.012.014-.024.025-.036.035-.015.015-.028.03-.042.047-.012.013-.022.023-.03.037-.011.017-.025.035-.035.052-.008.013-.016.026-.025.038-.011.022-.021.039-.03.059-.006.015-.013.028-.02.041-.008.022-.015.044-.021.064-.005.013-.01.027-.013.042-.007.023-.011.046-.016.071-.001.014-.005.025-.006.037-.006.039-.009.075-.009.114v6.093c0 .037.003.075.008.112.002.012.005.025.007.038.005.023.008.047.015.072.003.015.008.028.013.04.007.022.013.042.022.063.007.015.013.028.02.04.008.02.018.038.03.058.007.013.015.027.025.038.012.018.023.035.035.052.01.013.02.025.03.037.013.015.028.032.042.045l.035.035c.015.013.032.028.048.04l.038.03c.005.003.01.007.013.01l9.163 6.095c.149.101.314.148.481.148s.332-.047.478-.144l9.163-6.095.015-.01c.013-.01.027-.02.037-.03.018-.013.035-.028.048-.04s.025-.023.035-.035c.017-.015.03-.032.043-.045.01-.013.02-.025.03-.037.013-.018.025-.035.035-.052.008-.013.018-.027.025-.038.012-.02.022-.038.03-.058.007-.013.013-.027.02-.04.008-.022.015-.042.023-.063.003-.013.01-.027.013-.04.007-.025.01-.048.015-.072.002-.013.005-.027.007-.037.003-.042.007-.079.007-.117v-6.093c.001-.039-.002-.075-.008-.114zm-9.154-4.376 6.751 4.49-3.016 2.013-3.735-2.492zm-1.724 0v4.009l-3.735 2.494-3.014-2.013zm-7.439 6.098 2.154 1.438-2.155 1.438v-2.876zm7.439 8.974-6.749-4.491 3.015-2.011 3.735 2.492v4.01zm.862-5.501-3.047-2.035 3.047-2.034 3.047 2.034zm.862 5.501v-4.009l3.735-2.492 3.016 2.011zm7.441-6.098-2.156-1.438 2.156-1.438z"/></svg>

<?xml version="1.0" encoding="iso-8859-1"?>
<!-- Generator: Adobe Illustrator 19.2.1, SVG Export Plug-In . SVG Version: 6.00 Build 0)  -->
<svg version="1.1" xmlns="http://www.w3.org/2000/svg" xmlns:xlink="http://www.w3.org/1999/xlink" x="0px" y="0px"
	 viewBox="0 0 24 24" style="enable-background:new 0 0 24 24;" xml:space="preserve">
<g id="codepen">
	<path d="M22.016,8.84c-0.002-0.013-0.005-0.025-0.007-0.037c-0.005-0.025-0.008-0.048-0.015-0.072
		c-0.003-0.015-0.01-0.028-0.013-0.042c-0.008-0.02-0.015-0.04-0.023-0.062c-0.007-0.015-0.013-0.028-0.02-0.042
		c-0.008-0.02-0.018-0.037-0.03-0.057c-0.007-0.013-0.017-0.027-0.025-0.038c-0.012-0.018-0.023-0.035-0.035-0.052
		c-0.01-0.013-0.02-0.025-0.03-0.037c-0.015-0.017-0.028-0.032-0.043-0.045c-0.01-0.012-0.022-0.023-0.035-0.035
		c-0.015-0.015-0.032-0.028-0.048-0.04c-0.012-0.01-0.025-0.02-0.037-0.03c-0.005-0.003-0.01-0.008-0.015-0.012l-9.161-6.096
		c-0.289-0.192-0.666-0.192-0.955,0L2.359,8.237C2.354,8.24,2.349,8.245,2.344,8.249L2.306,8.277
		c-0.017,0.013-0.033,0.027-0.048,0.04C2.246,8.331,2.234,8.342,2.222,8.352c-0.015,0.015-0.028,0.03-0.042,0.047
		c-0.012,0.013-0.022,0.023-0.03,0.037C2.139,8.453,2.125,8.471,2.115,8.488C2.107,8.501,2.099,8.514,2.09,8.526
		C2.079,8.548,2.069,8.565,2.06,8.585C2.054,8.6,2.047,8.613,2.04,8.626C2.032,8.648,2.025,8.67,2.019,8.69
		c-0.005,0.013-0.01,0.027-0.013,0.042C1.999,8.755,1.995,8.778,1.99,8.803C1.989,8.817,1.985,8.828,1.984,8.84
		C1.978,8.879,1.975,8.915,1.975,8.954v6.093c0,0.037,0.003,0.075,0.008,0.112c0.002,0.012,0.005,0.025,0.007,0.038
		c0.005,0.023,0.008,0.047,0.015,0.072c0.003,0.015,0.008,0.028,0.013,0.04c0.007,0.022,0.013,0.042,0.022,0.063
		c0.007,0.015,0.013,0.028,0.02,0.04c0.008,0.02,0.018,0.038,0.03,0.058c0.007,0.013,0.015,0.027,0.025,0.038
		c0.012,0.018,0.023,0.035,0.035,0.052c0.01,0.013,0.02,0.025,0.03,0.037c0.013,0.015,0.028,0.032,0.042,0.045
		c0.012,0.012,0.023,0.023,0.035,0.035c0.015,0.013,0.032,0.028,0.048,0.04l0.038,0.03c0.005,0.003,0.01,0.007,0.013,0.01
		l9.163,6.095C11.668,21.953,11.833,22,12,22c0.167,0,0.332-0.047,0.478-0.144l9.163-6.095l0.015-0.01
		c0.013-0.01,0.027-0.02,0.037-0.03c0.018-0.013,0.035-0.028,0.048-0.04c0.013-0.012,0.025-0.023,0.035-0.035
		c0.017-0.015,0.03-0.032,0.043-0.045c0.01-0.013,0.02-0.025,0.03-0.037c0.013-0.018,0.025-0.035,0.035-0.052
		c0.008-0.013,0.018-0.027,0.025-0.038c0.012-0.02,0.022-0.038,0.03-0.058c0.007-0.013,0.013-0.027,0.02-0.04
		c0.008-0.022,0.015-0.042,0.023-0.063c0.003-0.013,0.01-0.027,0.013-0.04c0.007-0.025,0.01-0.048,0.015-0.072
		c0.002-0.013,0.005-0.027,0.007-0.037c0.003-0.042,0.007-0.079,0.007-0.117V8.954C22.025,8.915,22.022,8.879,22.016,8.84z
		 M12.862,4.464l6.751,4.49l-3.016,2.013l-3.735-2.492V4.464z M11.138,4.464v4.009l-3.735,2.494L4.389,8.954L11.138,4.464z
		 M3.699,10.562L5.853,12l-2.155,1.438V10.562z M11.138,19.536l-6.749-4.491l3.015-2.011l3.735,2.492V19.536z M12,14.035L8.953,12
		L12,9.966L15.047,12L12,14.035z M12.862,19.536v-4.009l3.735-2.492l3.016,2.011L12.862,19.536z M20.303,13.438L18.147,12
		l2.156-1.438L20.303,13.438z"/>
</g>
<g id="Layer_1">
</g>
</svg>
